img/services/work-do/03.svg

<svg width="90" height="90" viewBox="0 0 90 90" fill="none" xmlns="http://www.w3.org/2000/svg">
<path d="M15.4688 5.625C13.1451 5.625 11.25 7.52014 11.25 9.84375V80.1562C11.25 82.4799 13.1451 84.375 15.4688 84.375H71.7188C74.0424 84.375 75.9375 82.4799 75.9375 80.1562V24.8291C75.9375 22.9504 75.2069 21.1871 73.8776 19.8578L61.7047 7.68494C60.3754 6.35559 58.6121 5.625 56.7334 5.625H15.4688ZM15.4688 8.4375H56.25V21.0938C56.25 23.4174 58.1451 25.3125 60.4688 25.3125H73.125V80.1562C73.125 80.9308 72.4933 81.5625 71.7188 81.5625H15.4688C14.6942 81.5625 14.0625 80.9308 14.0625 80.1562V9.84375C14.0625 9.06921 14.6942 8.4375 15.4688 8.4375ZM59.0625 9.14062C59.2932 9.29443 59.5129 9.47021 59.7162 9.67346L71.889 21.8463C72.0868 22.0441 72.2626 22.2638 72.4219 22.5H60.4688C59.6942 22.5 59.0625 21.8683 59.0625 21.0938V9.14062ZM26.7188 19.6875C25.9387 19.6875 25.3125 20.3137 25.3125 21.0938C25.3125 21.8738 25.9387 22.5 26.7188 22.5H52.0312C52.8113 22.5 53.4375 21.8738 53.4375 21.0938C53.4375 20.3137 52.8113 19.6875 52.0312 19.6875H26.7188ZM26.7188 25.3125C25.9387 25.3125 25.3125 25.9387 25.3125 26.7188C25.3125 27.4988 25.9387 28.125 26.7188 28.125H54.8438C55.6238 28.125 56.25 27.4988 56.25 26.7188C56.25 25.9387 55.6238 25.3125 54.8438 25.3125H26.7188ZM26.7188 30.9375C25.9387 30.9375 25.3125 31.5637 25.3125 32.3438C25.3125 33.1238 25.9387 33.75 26.7188 33.75H49.2188C49.9988 33.75 50.625 33.1238 50.625 32.3438C50.625 31.5637 49.9988 30.9375 49.2188 30.9375H26.7188ZM54.8438 30.9375C54.0637 30.9375 53.4375 31.5637 53.4375 32.3438C53.4375 33.1238 54.0637 33.75 54.8438 33.75H60.4688C61.2488 33.75 61.875 33.1238 61.875 32.3438C61.875 31.5637 61.2488 30.9375 60.4688 30.9375H54.8438ZM26.7188 36.5625C25.9387 36.5625 25.3125 37.1887 25.3125 37.9688C25.3125 38.7488 25.9387 39.375 26.7188 39.375H60.4688C61.2488 39.375 61.875 38.7488 61.875 37.9688C61.875 37.1887 61.2488 36.5625 60.4688 36.5625H26.7188ZM26.7188 42.1875C25.9387 42.1875 25.3125 42.8137 25.3125 43.5938C25.3125 44.3738 25.9387 45 26.7188 45H60.4688C61.2488 45 61.875 44.3738 61.875 43.5938C61.875 42.8137 61.2488 42.1875 60.4688 42.1875H26.7188ZM26.7188 47.8125C25.9387 47.8125 25.3125 48.4387 25.3125 49.2188C25.3125 49.9988 25.9387 50.625 26.7188 50.625H46.4062C47.1863 50.625 47.8125 49.9988 47.8125 49.2188C47.8125 48.4387 47.1863 47.8125 46.4062 47.8125H26.7188ZM32.8107 57.7057C32.3987 57.7332 32.0746 57.865 31.8768 57.9694C29.6851 59.1174 29.6686 63.1879 30.3827 66.6156C30.6958 68.1152 31.5472 70.0323 32.6733 71.6254C32.113 72.7899 31.3989 73.8501 30.531 74.6631C29.9652 75.1904 29.9323 76.0803 30.4596 76.6461C30.7397 76.9482 31.1133 77.0966 31.4868 77.0966C31.8329 77.0966 32.179 76.9702 32.4536 76.712C33.3325 75.8936 34.0796 74.8883 34.7058 73.7897C34.8212 73.8776 34.9365 73.96 35.0519 74.0369C35.5737 74.3719 36.0736 74.5587 36.5735 74.6027C37.1777 74.6521 37.793 74.5038 38.4137 74.1632C39.353 73.6469 40.21 72.8119 40.8911 71.8286C41.5173 72.0264 42.1765 71.9934 42.7808 71.7297C44.4562 70.9991 45.1154 69.6313 45.4724 68.9008L45.5768 68.6755C45.6152 68.5986 45.6592 68.5217 45.6976 68.4393H45.7031C47.7301 68.8184 49.0594 66.9617 49.6912 66.0718C50.1031 65.5005 50.5481 65.2203 50.5865 65.1874C51.2622 65.5719 52.1246 65.3467 52.5146 64.6765C52.8992 64.0063 52.674 63.1439 52.0038 62.7539C50.5426 61.908 48.7354 62.5726 47.4005 64.4403C46.8842 65.1654 46.5765 65.462 46.4227 65.5939C46.4722 64.9402 46.4337 64.314 46.2524 63.8086C45.9943 63.078 45.5219 62.7429 45.1703 62.5946C44.7583 62.4243 44.2914 62.4518 43.9014 62.6715C43.5443 62.8857 42.7313 63.5504 43.0225 65.1874C43.0939 65.6049 43.2312 66.0388 43.429 66.4563C43.3411 66.7859 43.2257 67.11 43.0884 67.3737L42.9346 67.6813C42.7533 68.0658 42.561 68.4558 42.2534 68.7689C42.3578 68.291 42.4127 67.8241 42.4072 67.3737C42.3633 64.2865 41.7865 62.5836 40.6 62.0288C39.9463 61.7212 39.2102 61.8201 38.6279 62.287C37.5293 63.1769 37.1283 65.4071 37.6611 67.7142C37.8259 68.4448 38.1885 69.3018 38.6993 70.0488C38.2434 70.7574 37.6611 71.3672 37.0624 71.6968C36.9086 71.7847 36.8262 71.8011 36.8262 71.8066C36.8097 71.8011 36.7383 71.7792 36.5845 71.6748C36.3647 71.532 36.145 71.3562 35.9253 71.142C36.6888 69.0601 37.0789 66.8738 37.1338 65.0116C37.2107 62.3145 36.6229 60.1721 35.4749 58.9691C34.4421 57.887 33.4973 57.6562 32.8107 57.7057ZM33.1128 60.6171C33.1952 60.6775 33.2996 60.7709 33.4369 60.9137C33.9038 61.4026 34.3817 62.7155 34.3158 64.9292C34.2883 65.907 34.1455 67.0166 33.8818 68.1482C33.5303 67.4121 33.2666 66.6705 33.1348 66.0443C32.5031 63.0011 32.8326 61.2103 33.1128 60.6171ZM18.2812 70.3125C17.5012 70.3125 16.875 70.9387 16.875 71.7188V74.5312C16.875 75.3113 17.5012 75.9375 18.2812 75.9375C19.0613 75.9375 19.6875 75.3113 19.6875 74.5312V71.7188C19.6875 70.9387 19.0613 70.3125 18.2812 70.3125ZM25.3125 70.3125C24.5325 70.3125 23.9062 70.9387 23.9062 71.7188V74.5312C23.9062 75.3113 24.5325 75.9375 25.3125 75.9375C26.0925 75.9375 26.7188 75.3113 26.7188 74.5312V71.7188C26.7188 70.9387 26.0925 70.3125 25.3125 70.3125ZM47.8125 70.3125C47.0325 70.3125 46.4062 70.9387 46.4062 71.7188V74.5312C46.4062 75.3113 47.0325 75.9375 47.8125 75.9375C48.5925 75.9375 49.2188 75.3113 49.2188 74.5312V71.7188C49.2188 70.9387 48.5925 70.3125 47.8125 70.3125ZM54.8438 70.3125C54.0637 70.3125 53.4375 70.9387 53.4375 71.7188V74.5312C53.4375 75.3113 54.0637 75.9375 54.8438 75.9375C55.6238 75.9375 56.25 75.3113 56.25 74.5312V71.7188C56.25 70.9387 55.6238 70.3125 54.8438 70.3125ZM61.875 70.3125C61.095 70.3125 60.4688 70.9387 60.4688 71.7188V74.5312C60.4688 75.3113 61.095 75.9375 61.875 75.9375C62.655 75.9375 63.2812 75.3113 63.2812 74.5312V71.7188C63.2812 70.9387 62.655 70.3125 61.875 70.3125ZM68.9062 70.3125C68.1262 70.3125 67.5 70.9387 67.5 71.7188V74.5312C67.5 75.3113 68.1262 75.9375 68.9062 75.9375C69.6863 75.9375 70.3125 75.3113 70.3125 74.5312V71.7188C70.3125 70.9387 69.6863 70.3125 68.9062 70.3125Z" fill="#E4B564"/>
</svg>

<svg width="90" height="90" fill="none" xmlns="http://www.w3.org/2000/svg"><path d="M15.469 5.625a4.227 4.227 0 00-4.219 4.219v70.312a4.227 4.227 0 004.219 4.219h56.25a4.227 4.227 0 004.219-4.219V24.83a6.98 6.98 0 00-2.06-4.971L61.705 7.685a6.98 6.98 0 00-4.972-2.06H15.47zm0 2.813H56.25v12.656a4.227 4.227 0 004.219 4.218h12.656v54.844c0 .775-.632 1.406-1.406 1.406h-56.25a1.409 1.409 0 01-1.406-1.406V9.844c0-.775.631-1.406 1.406-1.406zm43.593.703c.231.153.45.33.654.532L71.89 21.846c.198.198.374.418.533.654H60.469a1.409 1.409 0 01-1.407-1.406V9.14zM26.72 19.687c-.78 0-1.407.627-1.407 1.407S25.94 22.5 26.72 22.5h25.31c.78 0 1.407-.626 1.407-1.406 0-.78-.627-1.407-1.407-1.407H26.72zm0 5.625c-.78 0-1.407.627-1.407 1.407s.627 1.406 1.407 1.406h28.125c.78 0 1.406-.626 1.406-1.406 0-.78-.626-1.407-1.406-1.407H26.719zm0 5.625c-.78 0-1.407.627-1.407 1.407s.627 1.406 1.407 1.406h22.5c.78 0 1.406-.626 1.406-1.406 0-.78-.626-1.407-1.406-1.407h-22.5zm28.125 0c-.78 0-1.407.627-1.407 1.407s.627 1.406 1.407 1.406h5.625c.78 0 1.406-.626 1.406-1.406 0-.78-.626-1.407-1.406-1.407h-5.625zM26.72 36.562c-.78 0-1.407.627-1.407 1.407s.627 1.406 1.407 1.406h33.75c.78 0 1.406-.626 1.406-1.406 0-.78-.626-1.407-1.406-1.407H26.72zm0 5.626c-.78 0-1.407.626-1.407 1.406 0 .78.627 1.406 1.407 1.406h33.75c.78 0 1.406-.626 1.406-1.406 0-.78-.626-1.407-1.406-1.407H26.72zm0 5.624c-.78 0-1.407.627-1.407 1.407s.627 1.406 1.407 1.406h19.687c.78 0 1.407-.626 1.407-1.406 0-.78-.627-1.407-1.407-1.407H26.72zm6.092 9.894a2.353 2.353 0 00-.934.263c-2.192 1.148-2.208 5.219-1.494 8.647.313 1.5 1.164 3.416 2.29 5.01-.56 1.164-1.274 2.224-2.142 3.037a1.405 1.405 0 101.923 2.049c.879-.818 1.626-1.824 2.252-2.922.115.088.23.17.346.247.522.335 1.022.522 1.522.566.604.05 1.219-.1 1.84-.44.939-.516 1.796-1.351 2.477-2.334a2.67 2.67 0 001.89-.1c1.675-.73 2.334-2.098 2.691-2.828l.105-.225c.038-.077.082-.154.12-.237h.006c2.027.38 3.356-1.477 3.988-2.367.412-.572.857-.852.895-.885.676.385 1.539.16 1.929-.51a1.415 1.415 0 00-.511-1.923c-1.461-.846-3.269-.181-4.603 1.686-.517.725-.825 1.022-.978 1.154.05-.654.01-1.28-.17-1.785-.259-.731-.731-1.066-1.083-1.214a1.452 1.452 0 00-1.269.077c-.357.214-1.17.878-.879 2.515a5 5 0 00.407 1.27 4.66 4.66 0 01-.34.917l-.154.307c-.182.385-.374.775-.682 1.088a6.2 6.2 0 00.154-1.395c-.044-3.087-.62-4.79-1.807-5.345-.654-.308-1.39-.209-1.972.258-1.099.89-1.5 3.12-.967 5.427.165.73.527 1.588 1.038 2.335-.456.708-1.038 1.318-1.637 1.648-.153.088-.236.104-.236.11-.016-.006-.088-.028-.242-.132a4.311 4.311 0 01-.659-.533c.764-2.082 1.154-4.268 1.209-6.13.077-2.697-.511-4.84-1.66-6.043-1.032-1.082-1.977-1.313-2.663-1.263zm.302 2.911c.082.06.187.154.324.297.467.489.945 1.801.879 4.015a16.48 16.48 0 01-.434 3.22c-.352-.737-.615-1.478-.747-2.105-.632-3.043-.302-4.834-.022-5.427zM18.28 70.313c-.78 0-1.406.626-1.406 1.406v2.812c0 .78.626 1.406 1.406 1.406.78 0 1.407-.626 1.407-1.406V71.72c0-.78-.627-1.406-1.407-1.406zm7.032 0c-.78 0-1.407.626-1.407 1.406v2.812c0 .78.627 1.406 1.407 1.406s1.406-.626 1.406-1.406V71.72c0-.78-.627-1.406-1.407-1.406zm22.5 0c-.78 0-1.407.626-1.407 1.406v2.812c0 .78.627 1.406 1.407 1.406s1.406-.626 1.406-1.406V71.72c0-.78-.627-1.406-1.407-1.406zm7.03 0c-.78 0-1.406.626-1.406 1.406v2.812c0 .78.627 1.406 1.407 1.406s1.406-.626 1.406-1.406V71.72c0-.78-.626-1.406-1.406-1.406zm7.032 0c-.78 0-1.406.626-1.406 1.406v2.812c0 .78.626 1.406 1.406 1.406.78 0 1.406-.626 1.406-1.406V71.72c0-.78-.626-1.406-1.406-1.406zm7.031 0c-.78 0-1.406.626-1.406 1.406v2.812c0 .78.626 1.406 1.406 1.406.78 0 1.406-.626 1.406-1.406V71.72c0-.78-.626-1.406-1.406-1.406z" fill="#E4B564"/></svg>
